!!!OTL: MIT JAMMERVOLLEN BLICKEN
!!!ARE: Europa, Mitteleuropa, Deutschland, Hessen, Odenwald; Elsass
!!!SCT: E1406
!!!YEM: Copyright 1995, estate of Helmut Schaffrath.
**kern
*ICvox
*Ivox
*M6/8
*k[f#]
*G:
{8d
=1
4g
8d
8B
8d
8g
=2
8b
8a
4.r}
{8d
=3
8d
8f#
8a
8dd
8cc
8dd
=4
4.b
4r}
{16g
16a
=5
4b
8b
8b
8a
8g
=6
8e
8cc
4.r}
{8cc
=7
8b
8dd
8b
8a
8g
8a
=8
4g
8r}
{8B
8d
8g
=9
8.g
16f#
8a
8d
8f#
8a
=10
[4.cc
4cc]}
{8cc
=11
8b
8dd
8b
8a
8g
8a
=12
4.g
4r}
==
!!!AGN: Staende -, Soldaten - Lied, Invaliden
!!!ONB: ESAC (Essen Associative Code) Database: ERK3
!!!AMT: compound duple
!!!AIN: vox
!!!EED: Helmut Schaffrath
!!!EEV: 1.0
*-
